fs/mail_pause_16_filled.svg

<svg viewBox="0 0 16 16" fill="none" xmlns="http://www.w3.org/2000/svg" height="1em" width="1em">
  <path d="M13 10.4003C12.2499 10.7837 11.4002 11 10.5 11C9.85025 11 9.22681 10.8873 8.64816 10.6805L7.23715 11.4402C7.08916 11.5199 6.91104 11.5199 6.76305 11.4402L1 8.33706V13C1 14.1046 1.89543 15 3 15H11C12.1046 15 13 14.1046 13 13V10.4003ZM5.02242 5H3C1.89543 5 1 5.89543 1 7V7.2013L7.0001 10.4321L7.54428 10.1391C6.01444 9.16236 5 7.44965 5 5.5C5 5.33146 5.00758 5.16468 5.02242 5ZM10.5 10C12.9853 10 15 7.98528 15 5.5C15 3.01472 12.9853 1 10.5 1C8.01472 1 6 3.01472 6 5.5C6 7.98528 8.01472 10 10.5 10ZM9.5 3.5V7.5C9.5 7.77614 9.27614 8 9 8C8.72386 8 8.5 7.77614 8.5 7.5V3.5C8.5 3.22386 8.72386 3 9 3C9.27614 3 9.5 3.22386 9.5 3.5ZM12.5 3.5V7.5C12.5 7.77614 12.2761 8 12 8C11.7239 8 11.5 7.77614 11.5 7.5V3.5C11.5 3.22386 11.7239 3 12 3C12.2761 3 12.5 3.22386 12.5 3.5Z" fill="#212121"/>
</svg>

<svg viewBox="0 0 16 16" fill="none" xmlns="http://www.w3.org/2000/svg" height="1em" width="1em">
  <path d="M13 10.4c-.75.384-1.6.6-2.5.6-.65 0-1.273-.113-1.852-.32l-1.41.76a.5.5 0 0 1-.475 0L1 8.337V13a2 2 0 0 0 2 2h8a2 2 0 0 0 2-2v-2.6ZM5.022 5H3a2 2 0 0 0-2 2v.201l6 3.231.544-.293A5.496 5.496 0 0 1 5.022 5Zm5.478 5a4.5 4.5 0 1 0 0-9 4.5 4.5 0 0 0 0 9Zm-1-6.5v4a.5.5 0 0 1-1 0v-4a.5.5 0 0 1 1 0Zm3 0v4a.5.5 0 0 1-1 0v-4a.5.5 0 0 1 1 0Z" fill="#212121"/>
</svg>
